X:1
T:William Tell
T:Rossini arr. E Muirhead
T:Theme from Finale: March of the Swiss Soldiers
T:William Tell Overture
%%score { 1 | 2 }
L:1/8
Q:1/4=180
M:4/4
K:C
V:1 treble nm="Piano" snm="Pno."
V:2 bass 
V:1
!mp!"^Allegro" z2 | z8 | .C2 .D2 .E2 z2 | z4 .C2 .E.E | .D2 z2 z4 | z8 | .C2 .D2 .E2 .C.E | %7
 G4- GFED | .C2 .E2 .C2!fine! ||!f! .E.E | .E2 .E.E .E2 .E.E | .E2 .A2 .E2 .A2 | .E2 .A2 .E2 .D2 | %13
 z4 z2 .E.E | .E2 .E.E .E2 .E.E | .E2 .A2 .E2 .A2 | .E2 .A2 .G2 .^F2 | .G2 .^F2 .G2!D.C.! |] %18
V:2
 .G,.G, | .G,2 .G,.G, .G,2 .G,.G, | z4 z2 .G,.G, | .G,2 .G,.G, z4 | z2 .B,2 .G,2 .G,.G, | %5
 .G,2 .G,.G, .G,2 .G,.G, | z8 | z2 .[G,B,]2 .[G,B,]2 z2 | .E,2 .G,2 .E,2 || z2 | %10
 .[A,C]2 z2 .[A,C]2 z2 | .[A,C]2 z2 z4 | z8 | .C2 .B,2 .A,2 z2 | .[A,C]2 z2 .[A,C]2 z2 | %15
 .[A,C]2 z2 z4 | z8 | .[B,D]2 .[CD]2 .[B,D]2 |] %18

